X:1
T:Title
%%score { 1 | 2 }
L:1/8
M:4/4
K:Ab
V:1 treble nm="Grand Piano"
V:2 bass 
V:1
 z4 z2[Q:1/4=100] [CE]>[DF] | [CE]2 [CA]2 [Fd]2 [Ec]2 | c2 B4 E>F | E2 G2 c2 B2 | %4
 [CA]6 [CE]>[C=E] | [DF]2 [FA]2 [FB]2 [FA]2 | F2 E4 [EA]>[EA] | [=DB]2 [DB]2 [DB]2 [Dc]2 | B6 E>F | %9
 [CE]2 [CA]2 [Fd]2 [Ec]2 | c2 B4 E>F | E2 G2 c2 B2 | A6 [_GA]>[GA] | [FB]3 [FB] [Fc]2 [Fc]2 | %14
 [Fe]2 [Fd]2 [Fc]2 [FB]2 | [EA] [Ac]3 [Ac]2 [GB]2 | A6 z2 | e4 e2 c2 | [Bd]2 [Bd]4 [GB]>[Ac] | %19
 [Bd]3 [Bd] [Ac]2 [GB]2 | [Ac]6 [_GA]>[GA] | [FB]3 [FB] [Fc]2 [Fc]2 | [Fe]2 [Fd]2 [Fc]2 [FB]2 | %23
 [EA] [Ac]3 [Ac]2 [GB]2 |[M:3/4] [EA]6 |] %25
V:2
 z4 z2 [A,,A,]>[A,,A,] | [A,,A,]2 [A,,A,]2 [A,,A,]2 [A,,A,]2 | [E,G,E]2 [E,G,D]4 [E,G,D]>[E,G,D] | %3
 [E,G,D]2 [E,B,D]2 [E,A,E]2 [E,G,D]2 | [A,,A,]6 [A,,A,]>[A,,A,] | [D,A,]2 [D,D]2 [D,D]2 [D,D]2 | %6
 [A,D]2 [A,C]4 [C,A,]>[C,A,] | [B,,A,]2 [B,,A,]2 [B,,A,]2 [B,,A,]2 | [E,G,D]6 [E,G,D]>[E,G,D] | %9
 [A,,A,]2 [A,,A,]2 [A,,A,]2 [A,,A,]2 | [E,G,E]2 [E,G,D]4 .[E,G,D]>[E,G,D] | %11
 [E,G,D]2 [E,B,D]2 [E,G,E]2 [E,G,D]2 | [F,A,C]6 [C,A,]>[C,A,] | [D,A,]3 [D,A,] [C,=A,]2 [C,A,]2 | %14
 [B,,B,]2 [B,,B,]2 [C,=A,]2 [D,B,]2 | [E,C] [E,E]3 [E,E]2 [E,D]2 | [A,CE]6 z2 | %17
 [A,CA]4 [A,CA]2 [A,EA]2 | [E,E]2 [E,E]4 [E,E]>[E,E] | [E,E]3 [E,E] [E,E]2 [E,E]2 | %20
 [A,E]6 [C,A,]>[C,A,] | [D,A,]3 [D,A,] [C,=A,]2 [C,A,]2 | [B,,B,]2 [B,,B,]2 [C,=A,]2 [D,B,]2 | %23
 [E,C] [E,E]3 [E,E]2 [E,D]2 |[M:3/4] [A,C]6 |] %25

